learning-site/svg (26).svg

<svg xmlns="http://www.w3.org/2000/svg" xmlns:xlink="http://www.w3.org/1999/xlink" viewBox="0 0 100 100" version="1.1"><!-- Generator: Sketch 51.3 (57544) - http://www.bohemiancoding.com/sketch --><title>align-requirements-with-cloud-types-and-service-modules-in-azure</title><desc>Created with Sketch.</desc><defs><rect id="path-1" x="0" y="0" width="96" height="96" rx="48"></rect><path d="M16.6817078,32.0947321 C16.6647869,31.9147552 16.6424821,31.7363165 16.6001798,31.5640309 C17.0055125,30.9756448 17.2447126,30.2641976 17.2447126,29.4958345 C17.2447126,27.4784008 15.6087684,25.8424567 13.5913347,25.8424567 C13.5336498,25.8424567 13.4798106,25.8570702 13.4228948,25.8601467 C14.0612745,25.2017696 14.4573776,24.308038 14.4573776,23.318934 C14.4573776,21.3015003 12.8214334,19.6655561 10.8039997,19.6655561 C8.78656602,19.6655561 7.15062187,21.3015003 7.15062187,23.318934 C7.15062187,24.4241769 7.65286518,25.4040513 8.42891955,26.0739654 C8.08896313,25.9693635 7.73516233,25.8962959 7.36136409,25.8962959 C5.34393038,25.8962959 3.70798624,27.5322401 3.70798624,29.5496738 C3.70798624,30.2595828 3.91872845,30.9171908 4.26945273,31.4778881 C2.2897065,31.5217287 0.696064622,33.1330606 0.696064622,35.1235747 C0.696064622,37.1410084 2.33200877,38.7769525 4.34944247,38.7769525 C5.49698769,38.7769525 6.50916563,38.2362526 7.17907976,37.4078972 C7.77361894,38.6208187 9.00730695,39.4630184 10.4494298,39.4630184 C11.7354188,39.4630184 12.8614283,38.7954117 13.5128833,37.7901559 C14.1704913,38.7531094 15.2757342,39.3861052 16.5301888,39.3861052 C18.5476225,39.3861052 20.1835666,37.7509302 20.1835666,35.7327274 C20.1835666,33.7675946 18.6268431,32.1762602 16.6817078,32.0947321" id="path-3"></path><filter x="-5.1%" y="-5.1%" width="110.3%" height="120.2%" filterUnits="objectBoundingBox" id="filter-4"><feOffset dx="0" dy="2" in="SourceAlpha" result="shadowOffsetOuter1"></feOffset><feColorMatrix values="0 0 0 0 0   0 0 0 0 0   0 0 0 0 0  0 0 0 0.0993263134 0" type="matrix" in="shadowOffsetOuter1"></feColorMatrix></filter><path d="M24.5051665,8.76618401 C24.4936296,8.74157178 24.4782469,8.71926695 24.4667099,8.69465472 C24.4936296,8.69234732 24.5213183,8.69003993 24.5482379,8.6869634 C24.5320862,8.71234476 24.5213183,8.74003352 24.5051665,8.76618401 M35.8490971,10.9312911 C36.6428415,10.261377 37.1589292,9.27073472 37.1589292,8.15010914 C37.1589292,6.13267543 35.522985,4.49673129 33.5055513,4.49673129 C33.4201776,4.49673129 33.3401879,4.51672872 33.2571216,4.52134352 C33.2586599,4.47365732 33.270966,4.42750939 33.270966,4.37828493 C33.270966,2.36085122 31.635791,0.724907079 29.6175881,0.724907079 C28.3315991,0.724907079 27.2055896,1.39328294 26.5541347,2.3985387 C25.9034488,1.80015387 25.0427899,1.42635563 24.0898352,1.42635563 C22.0724015,1.42635563 20.4364573,3.06229977 20.4364573,5.07973348 C20.4364573,5.64043084 20.5725937,6.16497898 20.7987186,6.63953354 C18.9604927,6.83027832 17.5222155,8.36623528 17.5222155,10.2552239 C17.5222155,11.7719526 18.4474815,13.0725551 19.7642358,13.6240229 C19.5458022,14.0931935 19.4150498,14.6108194 19.4150498,15.160749 C19.4150498,17.1789518 21.0509939,18.8141268 23.0684276,18.8141268 C24.0183059,18.8141268 24.8751191,18.442636 25.5250358,17.8488659 C26.0957319,19.1225488 27.3694148,20.0132039 28.8553781,20.0132039 C30.6143834,20.0132039 32.0826568,18.768748 32.4295354,17.1128064 C32.7279587,17.1912579 33.0371498,17.2466354 33.3609545,17.2466354 C35.3783882,17.2466354 37.0143323,15.6106913 37.0143323,13.5932576 C37.0143323,12.5403156 36.5620826,11.5988978 35.8490971,10.9312911" id="path-5"></path><filter x="-5.1%" y="-5.2%" width="110.2%" height="120.7%" filterUnits="objectBoundingBox" id="filter-6"><feOffset dx="0" dy="2" in="SourceAlpha" result="shadowOffsetOuter1"></feOffset><feColorMatrix values="0 0 0 0 0   0 0 0 0 0   0 0 0 0 0  0 0 0 0.0993263134 0" type="matrix" in="shadowOffsetOuter1"></feColorMatrix></filter><path d="M60.5695437,32.4154603 C61.5055775,31.7540066 62.1208833,30.6687611 62.1208833,29.4350731 C62.1208833,28.1560063 61.4601987,27.0346115 60.4649417,26.3816183 C61.3486746,25.7147807 61.9286002,24.6664536 61.9286002,23.4742987 C61.9286002,21.456865 60.2926561,19.8209208 58.2752224,19.8209208 C57.1945917,19.8209208 56.2347147,20.2985519 55.5655697,21.0430719 C54.8971939,20.188566 53.868095,19.6286378 52.6990141,19.6286378 C51.5422393,19.6286378 50.5231392,20.1762599 49.8539942,21.0153831 C49.2140762,19.9578264 48.0634544,19.2440717 46.7382397,19.2440717 C45.5045517,19.2440717 44.4193062,19.8593774 43.7578525,20.7954113 C43.0956297,19.8593774 42.0103842,19.2440717 40.7774653,19.2440717 C38.7600316,19.2440717 37.1240875,20.8800158 37.1240875,22.8974495 C37.1240875,24.4618644 38.1116532,25.78631 39.4937837,26.3070125 C38.42469,26.9446231 37.7009366,28.1006287 37.7009366,29.4350731 C37.7009366,30.8756576 38.5408289,32.1093457 39.7522121,32.7038848 C38.5408289,33.298424 37.7009366,34.5328812 37.7009366,35.9726966 C37.7009366,37.9901303 39.3368807,39.6260744 41.3543144,39.6260744 C42.3795676,39.6260744 43.3032954,39.2007443 43.9662873,38.5200624 C44.6362015,39.3084229 45.6222289,39.8183575 46.7382397,39.8183575 C48.2572758,39.8183575 49.5586474,38.8907841 50.1085769,37.5709533 C50.7369579,38.6785036 51.9114227,39.4337914 53.2758632,39.4337914 C54.3972579,39.4337914 55.3879002,38.9177037 56.0578143,38.1231902 C56.7023471,38.692348 57.539932,39.0492253 58.4675054,39.0492253 C60.4849391,39.0492253 62.1208833,37.4132812 62.1208833,35.3958475 C62.1208833,34.1621594 61.5055775,33.0769139 60.5695437,32.4154603" id="path-7"></path><filter x="-4.0%" y="-4.9%" width="108.0%" height="119.4%" filterUnits="objectBoundingBox" id="filter-8"><feOffset dx="0" dy="2" in="SourceAlpha" result="shadowOffsetOuter1"></feOffset><feColorMatrix values="0 0 0 0 0   0 0 0 0 0   0 0 0 0 0  0 0 0 0.0993263134 0" type="matrix" in="shadowOffsetOuter1"></feColorMatrix></filter></defs><g id="Badges-FINAL" stroke="none" stroke-width="1" fill="none" fill-rule="evenodd"><g id="Manage-Resources-in-Azure" transform="translate(-576.000000, -356.000000)"><g id="align-requirements-with-cloud-types-and-service-modules-in-azure" transform="translate(576.000000, 356.000000)"><g id="Mask" transform="translate(2.000000, 2.000000)"><mask id="mask-2" fill="white"><use xlink:href="#path-1"></use></mask><use id="BG" fill="#D9EAF8" xlink:href="#path-1"></use><g id="Earth" mask="url(#mask-2)"><g transform="translate(-19.000000, 54.500000)"><g id="Group-3240" transform="translate(42.000000, 0.000000)"><path d="M82.2024961,0.950699607 C82.2024961,0.950699607 22.6730351,7.05628535 3.74571931,31.4786283 C-15.1815965,55.9009713 68.4649282,48.5742684 68.4649282,48.5742684 L103.266767,30.5627905 L82.2024961,0.950699607 Z" id="Fill-3238" fill="#59A85A"></path></g><g id="Group-3243" transform="translate(0.000000, 10.000000)"><path d="M6.66997057,0.109078219 C6.66997057,0.109078219 40.5559714,2.55131252 60.0938458,15.0677633 C79.6317202,27.5842141 115.959955,11.7096911 115.959955,11.7096911 L118.40219,37.9637098 L70.4733416,53.8382327 C70.4733416,53.8382327 29.8711964,47.4273677 28.3447999,47.4273677 C26.8184035,47.4273677 0.564384827,22.3944662 0.564384827,22.3944662 L6.66997057,0.109078219 Z" id="Fill-3241" fill="#5FD65F"></path></g></g></g><g id="Clouds" mask="url(#mask-2)"><g transform="translate(17.153057, 14.345661)"><g id="Fill-3245"><use fill="black" fill-opacity="1" filter="url(#filter-4)" xlink:href="#path-3"></use><use fill="#FFFFFF" fill-rule="evenodd" xlink:href="#path-3"></use></g><g id="Fill-3247"><use fill="black" fill-opacity="1" filter="url(#filter-6)" xlink:href="#path-5"></use><use fill="#FFFFFF" fill-rule="evenodd" xlink:href="#path-5"></use></g><g id="Fill-3249"><use fill="black" fill-opacity="1" filter="url(#filter-8)" xlink:href="#path-7"></use><use fill="#FFFFFF" fill-rule="evenodd" xlink:href="#path-7"></use></g></g></g></g><g id="Azure-Border" stroke="#0078D4" stroke-width="4"><rect x="2" y="2" width="96" height="96" rx="48"></rect></g></g></g></g></svg>

<svg xmlns="http://www.w3.org/2000/svg" xmlns:xlink="http://www.w3.org/1999/xlink" viewBox="0 0 100 100"><defs><rect id="a" x="0" y="0" width="96" height="96" rx="48"/><path d="M16.682 32.095a3.665 3.665 0 0 0-.082-.531c.406-.588.645-1.3.645-2.068a3.654 3.654 0 0 0-3.654-3.654c-.057 0-.111.015-.168.018a3.638 3.638 0 0 0 1.034-2.541 3.654 3.654 0 0 0-7.306 0c0 1.105.502 2.085 1.278 2.755a3.61 3.61 0 0 0-1.068-.178 3.654 3.654 0 0 0-3.653 3.654c0 .71.21 1.367.561 1.928a3.65 3.65 0 0 0 .08 7.299c1.148 0 2.16-.54 2.83-1.37a3.641 3.641 0 0 0 3.27 2.056 3.645 3.645 0 0 0 3.064-1.673 3.653 3.653 0 0 0 6.67-2.057 3.647 3.647 0 0 0-3.501-3.638" id="d"/><filter x="-5.1%" y="-5.1%" width="110.3%" height="120.2%" filterUnits="objectBoundingBox" id="c"><feOffset dy="2" in="SourceAlpha" result="shadowOffsetOuter1"/><feColorMatrix values="0 0 0 0 0 0 0 0 0 0 0 0 0 0 0 0 0 0 0.0993263134 0" in="shadowOffsetOuter1"/></filter><path d="M24.505 8.766c-.011-.024-.027-.047-.038-.071l.081-.008c-.016.025-.027.053-.043.08M35.85 10.93a3.631 3.631 0 0 0 1.31-2.78 3.654 3.654 0 0 0-3.653-3.654c-.086 0-.166.02-.249.024.002-.047.014-.093.014-.143A3.653 3.653 0 0 0 29.618.725a3.645 3.645 0 0 0-3.064 1.674 3.628 3.628 0 0 0-2.464-.973 3.654 3.654 0 0 0-3.654 3.654c0 .56.137 1.085.363 1.56-1.839.19-3.277 1.726-3.277 3.615 0 1.517.925 2.818 2.242 3.369-.218.47-.349.987-.349 1.537a3.653 3.653 0 0 0 3.653 3.653 3.63 3.63 0 0 0 2.457-.965 3.65 3.65 0 0 0 6.905-.736c.298.078.607.134.931.134a3.654 3.654 0 0 0 3.653-3.654 3.635 3.635 0 0 0-1.165-2.662" id="f"/><filter x="-5.1%" y="-5.2%" width="110.2%" height="120.7%" filterUnits="objectBoundingBox" id="e"><feOffset dy="2" in="SourceAlpha" result="shadowOffsetOuter1"/><feColorMatrix values="0 0 0 0 0 0 0 0 0 0 0 0 0 0 0 0 0 0 0.0993263134 0" in="shadowOffsetOuter1"/></filter><path d="M60.57 32.415a3.643 3.643 0 0 0 1.55-2.98c0-1.279-.66-2.4-1.655-3.053a3.635 3.635 0 0 0 1.464-2.908 3.654 3.654 0 0 0-3.654-3.653c-1.08 0-2.04.478-2.71 1.222A3.632 3.632 0 0 0 52.7 19.63a3.63 3.63 0 0 0-2.845 1.386 3.639 3.639 0 0 0-3.116-1.77 3.643 3.643 0 0 0-2.98 1.55 3.645 3.645 0 0 0-2.98-1.55 3.654 3.654 0 0 0-3.654 3.652c0 1.565.988 2.89 2.37 3.41a3.64 3.64 0 0 0-1.793 3.128c0 1.44.84 2.674 2.051 3.269a3.64 3.64 0 0 0-2.051 3.269 3.654 3.654 0 0 0 3.653 3.653 3.635 3.635 0 0 0 2.612-1.106 3.626 3.626 0 0 0 2.772 1.298 3.65 3.65 0 0 0 3.37-2.247c.629 1.108 1.803 1.863 3.168 1.863a3.63 3.63 0 0 0 2.782-1.31c.644.568 1.482.925 2.41.925a3.654 3.654 0 0 0 3.653-3.653 3.643 3.643 0 0 0-1.551-2.98" id="h"/><filter x="-4%" y="-4.9%" width="108%" height="119.4%" filterUnits="objectBoundingBox" id="g"><feOffset dy="2" in="SourceAlpha" result="shadowOffsetOuter1"/><feColorMatrix values="0 0 0 0 0 0 0 0 0 0 0 0 0 0 0 0 0 0 0.0993263134 0" in="shadowOffsetOuter1"/></filter></defs><g fill="none" fill-rule="evenodd"><g transform="translate(2 2)"><mask id="b" fill="#fff"><use xlink:href="#a"/></mask><use fill="#D9EAF8" xlink:href="#a"/><g mask="url(#b)"><path d="M105.202 55.45S45.673 61.557 26.746 85.98C7.818 110.4 91.465 103.074 91.465 103.074l34.802-18.011-21.065-29.612z" fill="#59A85A"/><path d="M-12.33 64.61s33.886 2.441 53.424 14.958C60.632 92.084 96.96 76.21 96.96 76.21l2.442 26.254-47.929 15.874s-40.602-6.41-42.128-6.41c-1.527 0-27.78-25.034-27.78-25.034l6.105-22.285z" fill="#5FD65F"/></g><g mask="url(#b)"><g transform="translate(17.153 14.346)"><use fill="#000" filter="url(#c)" xlink:href="#d"/><use fill="#FFF" xlink:href="#d"/></g><g transform="translate(17.153 14.346)"><use fill="#000" filter="url(#e)" xlink:href="#f"/><use fill="#FFF" xlink:href="#f"/></g><g transform="translate(17.153 14.346)"><use fill="#000" filter="url(#g)" xlink:href="#h"/><use fill="#FFF" xlink:href="#h"/></g></g></g><rect x="2" y="2" width="96" height="96" rx="48" stroke="#0078D4" stroke-width="4"/></g></svg>
